X: 29225
T: New Found Out, The
R: reel
M: 4/4
K: Dmajor
|:A3B ADFA|dBBA G3B|AF3 ABdf|edBA BedB|
AF F2 ADFA|dBBA G3B|AF3 ABdf|1 edBA BcdB:|2 edBA Bcde:|
f2fd g2ge|f2fd Bcde|fAdf g2fg|afed Bcde|
f2fd g2ge|f2fd BcdB|BAFB ABdf|edBA Bcde|
f2fd g2ge|f2fd Bcde|fAdf g2fg|afed Bdfa|
b~f3 affe|defd efdB|BAFB ABdf|edBA BcdB||

